categories/preferences-system-symbolic.svg

<?xml version="1.0" encoding="UTF-8" standalone="no"?>
<!-- Created with Inkscape (http://www.inkscape.org/) -->

<svg
   xmlns:dc="http://purl.org/dc/elements/1.1/"
   xmlns:cc="http://creativecommons.org/ns#"
   xmlns:rdf="http://www.w3.org/1999/02/22-rdf-syntax-ns#"
   xmlns:svg="http://www.w3.org/2000/svg"
   xmlns="http://www.w3.org/2000/svg"
   xmlns:sodipodi="http://sodipodi.sourceforge.net/DTD/sodipodi-0.dtd"
   xmlns:inkscape="http://www.inkscape.org/namespaces/inkscape"
   width="16"
   height="16"
   id="svg4152"
   version="1.1"
   inkscape:version="0.92.2 5c3e80d, 2017-08-06"
   viewBox="0 0 16 16"
   sodipodi:docname="preferences-system-symbolic.svg">
  <defs
     id="defs4154" />
  <sodipodi:namedview
     id="base"
     pagecolor="#ededed"
     bordercolor="#000000"
     borderopacity="0.49803922"
     inkscape:pageopacity="0"
     inkscape:pageshadow="2"
     inkscape:zoom="31.392432"
     inkscape:cx="3.9432133"
     inkscape:cy="6.3829351"
     inkscape:current-layer="layer1"
     showgrid="true"
     inkscape:grid-bbox="true"
     inkscape:document-units="px"
     inkscape:showpageshadow="false"
     borderlayer="true"
     inkscape:window-width="1920"
     inkscape:window-height="1012"
     inkscape:window-x="0"
     inkscape:window-y="32"
     inkscape:window-maximized="1"
     inkscape:snap-center="true">
    <inkscape:grid
       type="xygrid"
       id="grid4700"
       color="#000000"
       opacity="0.0627451"
       empcolor="#000000"
       empopacity="0.1254902"
       empspacing="4"
       spacingx="2"
       spacingy="2" />
  </sodipodi:namedview>
  <metadata
     id="metadata4157">
    <rdf:RDF>
      <cc:Work
         rdf:about="">
        <dc:format>image/svg+xml</dc:format>
        <dc:type
           rdf:resource="http://purl.org/dc/dcmitype/StillImage" />
        <dc:title />
      </cc:Work>
    </rdf:RDF>
  </metadata>
  <g
     id="layer1"
     inkscape:label="Layer 1"
     inkscape:groupmode="layer">
    <path
       style="color:#000000;font-style:normal;font-variant:normal;font-weight:normal;font-stretch:normal;font-size:medium;line-height:normal;font-family:sans-serif;font-variant-ligatures:normal;font-variant-position:normal;font-variant-caps:normal;font-variant-numeric:normal;font-variant-alternates:normal;font-feature-settings:normal;text-indent:0;text-align:start;text-decoration:none;text-decoration-line:none;text-decoration-style:solid;text-decoration-color:#000000;letter-spacing:normal;word-spacing:normal;text-transform:none;writing-mode:lr-tb;direction:ltr;text-orientation:mixed;dominant-baseline:auto;baseline-shift:baseline;text-anchor:start;white-space:normal;shape-padding:0;clip-rule:nonzero;display:inline;overflow:visible;visibility:visible;opacity:1;isolation:auto;mix-blend-mode:normal;color-interpolation:sRGB;color-interpolation-filters:linearRGB;solid-color:#000000;solid-opacity:1;vector-effect:none;fill:#000000;fill-opacity:1;fill-rule:evenodd;stroke:none;stroke-width:4;stroke-linecap:round;stroke-linejoin:round;stroke-miterlimit:4;stroke-dasharray:none;stroke-dashoffset:0;stroke-opacity:1;color-rendering:auto;image-rendering:auto;shape-rendering:auto;text-rendering:auto;enable-background:accumulate"
       d="M 7 0 A 1.0001 1.0001 0 0 0 6 1 L 6 2.3535156 C 5.3049255 2.603019 4.6672967 2.9745775 4.1152344 3.4472656 L 2.9375 2.7675781 A 1.0001 1.0001 0 0 0 2.4609375 2.6347656 A 1.0001 1.0001 0 0 0 1.5722656 3.1347656 L 0.57226562 4.8652344 A 1.0001 1.0001 0 0 0 0.9375 6.2324219 L 2.1054688 6.90625 C 2.038789 7.2615385 2 7.6266611 2 8 C 2 8.3733389 2.038789 8.7384615 2.1054688 9.09375 L 0.9375 9.7675781 A 1.0001 1.0001 0 0 0 0.57226562 11.134766 L 1.5722656 12.865234 A 1.0001 1.0001 0 0 0 2.9375 13.232422 L 4.1152344 12.552734 C 4.6672967 13.025423 5.3049255 13.396981 6 13.646484 L 6 15 A 1.0001 1.0001 0 0 0 7 16 L 9 16 A 1.0001 1.0001 0 0 0 10 15 L 10 13.646484 C 10.695074 13.396981 11.332703 13.025423 11.884766 12.552734 L 13.0625 13.232422 A 1.0001 1.0001 0 0 0 14.427734 12.865234 L 15.427734 11.134766 A 1.0001 1.0001 0 0 0 15.0625 9.7675781 L 13.894531 9.09375 C 13.961211 8.7384615 14 8.3733389 14 8 C 14 7.6266611 13.961211 7.2615385 13.894531 6.90625 L 15.0625 6.2324219 A 1.0001 1.0001 0 0 0 15.427734 4.8652344 L 14.427734 3.1347656 A 1.0001 1.0001 0 0 0 13.509766 2.6347656 A 1.0001 1.0001 0 0 0 13.0625 2.7675781 L 11.884766 3.4472656 C 11.332703 2.9745775 10.695074 2.603019 10 2.3535156 L 10 1 A 1.0001 1.0001 0 0 0 9 0 L 7 0 z M 8 6 C 9.1282588 6 10 6.8717412 10 8 C 10 9.1282588 9.1282588 10 8 10 C 6.8717412 10 6 9.1282588 6 8 C 6 6.8717412 6.8717412 6 8 6 z "
       id="path4174" />
  </g>
</svg>

<svg xmlns="http://www.w3.org/2000/svg" width="16" height="16">
    <path d="M7 0a1 1 0 0 0-1 1v1.354a6.027 6.027 0 0 0-1.885 1.093l-1.178-.68a1 1 0 0 0-.476-.132 1 1 0 0 0-.889.5l-1 1.73a1 1 0 0 0 .366 1.367l1.167.674C2.04 7.262 2 7.626 2 8c0 .373.039.738.105 1.094l-1.167.674a1 1 0 0 0-.366 1.367l1 1.73a1 1 0 0 0 1.365.367l1.178-.68c.552.473 1.19.845 1.885 1.094V15a1 1 0 0 0 1 1h2a1 1 0 0 0 1-1v-1.354a6.027 6.027 0 0 0 1.885-1.093l1.178.68a1 1 0 0 0 1.365-.368l1-1.73a1 1 0 0 0-.366-1.367l-1.167-.674C13.96 8.738 14 8.374 14 8c0-.373-.039-.738-.105-1.094l1.168-.674a1 1 0 0 0 .365-1.367l-1-1.73a1 1 0 0 0-.918-.5 1 1 0 0 0-.447.133l-1.178.68A6.027 6.027 0 0 0 10 2.353V1a1 1 0 0 0-1-1H7zm1 6c1.128 0 2 .872 2 2 0 1.128-.872 2-2 2-1.128 0-2-.872-2-2 0-1.128.872-2 2-2z" fill-rule="evenodd"/>
</svg>
